svg/free/text-shapes.svg

<svg version="1.1" xmlns="http://www.w3.org/2000/svg" width="24" height="24" viewBox="0 0 24 24">
<title>text-shapes</title>
<path d="M10.845 6.891l-3.793 9.609h2.117l0.731-1.852h4.201l0.731 1.852h2.117l-3.793-9.609zM10.676 12.679l1.324-3.353 1.324 3.353z"></path>
<path d="M23.25 6v-5.25h-5.25v1.875h-12v-1.875h-5.25v5.25h1.875v12h-1.875v5.25h5.25v-1.875h12v1.875h5.25v-5.25h-1.875v-12zM19.5 2.25h2.25v2.25h-2.25zM2.25 4.5v-2.25h2.25v2.25zM4.5 21.75h-2.25v-2.25h2.25zM21.75 19.5v2.25h-2.25v-2.25zM19.875 16.5v1.5h-1.875v1.875h-12v-1.875h-1.875v-12h1.875v-1.875h12v1.875h1.875z"></path>
</svg>

<svg xmlns="http://www.w3.org/2000/svg" width="24" height="24" viewBox="0 0 24 24"><path d="M10.845 6.891L7.052 16.5h2.117l.731-1.852h4.201l.731 1.852h2.117l-3.793-9.609zm-.169 5.788L12 9.326l1.324 3.353z"/><path d="M23.25 6V.75H18v1.875H6V.75H.75V6h1.875v12H.75v5.25H6v-1.875h12v1.875h5.25V18h-1.875V6zM19.5 2.25h2.25V4.5H19.5zM2.25 4.5V2.25H4.5V4.5zM4.5 21.75H2.25V19.5H4.5zm17.25-2.25v2.25H19.5V19.5zm-1.875-3V18H18v1.875H6V18H4.125V6H6V4.125h12V6h1.875z"/></svg>
